X: 10489
T: Donnybrook
R: jig
M: 6/8
K: Dmixolydian
d/B/|c2A BAG|cAA AdB|c2A BAG|AFD DdB|
c2A BAG|cAA BAG|FGA BAG|AFD D2:|
e|fef gfg|afd cBA|fef gfg|afd efg|
agf gfe|efd {ef}e2d|cAA BAG|AFD D2:|

